X:3559
T:Cross Morris - Mossley
M:6/8
L:1/8
K:G
(3BcB A G2A|(3BcB A G2A|(3BcB A GAd|e3 g3:||(3BcB A GBd|e3g3|(3BcB A GBd
|e3g3||
M:4/4 defg agfe|ddef g2g2|defg agfe|ddef g2g2:||


